X:1069
T:Jombigbee Waltz 
C:Joe Buchanan's Scottish Tome - Page 650.2
I:650 2
Z:Carl Allison
R:Waltz
L:1/4
M:3/4
K:G
B/4A/4 |"G" G B B | d2 (B/A/) | G B B | d2 B | "D"B A A | A2 (B/d/) | e2 d | "G"B2 (B/A/) |
"G"G B B | d2 (B/A/) |G B B | d2 B |"D" B G A | A2 d | e d F | "G"G d |
"G"g2 d | g2 d | e> d e | d2 B | "D"B A A |A2 (B/d/) | "C"e2 d | "G"B2 d |
"G"g2 d | g2 d | e> d e | d2 B | "D"B A A |A2 (B/d/) | e d F | "G"G2 |]
